; generated by PrusaSlicer 2.6.1+win64 on 2023-10-02 at 09:52:34 UTC


;
;

;
;

;
;
; 

; external perimeters extrusion width = 0.45mm
; perimeters extrusion width = 0.45mm
; infill extrusion width = 0.45mm
; solid infill extrusion width = 0.45mm
; top infill extrusion width = 0.40mm
; support material extrusion width = 0.37mm
; first layer extrusion width = 0.50mm

M73 P0 R163
M201 X2500 Y2500 Z200 E2500 ; sets maximum accelerations, mm/sec^2
M203 X200 Y200 Z40 E100 ; sets maximum feedrates, mm / sec
M204 P2000 R1200 T2000 ; sets acceleration (P, T) and retract acceleration (R), mm/sec^2
M205 X8.00 Y8.00 Z2.00 E10.00 ; sets the jerk limits, mm/sec
M205 S0 T0 ; sets the minimum extruding and travel feed rate, mm/sec
;TYPE:Custom
M17 ; enable steppers
M862.3 P "MK4" ; printer model check
M862.1 P0.4 ; nozzle diameter check
M555 X22 Y69.5453 W206 H66.9094

G90 ; use absolute coordinates
M83 ; extruder relative mode

M140 S60 ; set bed temp

M104 S170 ; set extruder temp for bed leveling
M109 R170 ; wait for temp


M84 E ; turn off E motor

G28 ; home all without mesh bed level

G1 X42 Y-4 Z5 F4800

M302 S160 ; lower cold extrusion limit to 160C


G1 E-2 F2400 ; retraction


M84 E ; turn off E motor

G29 P9 X10 Y-4 W32 H4

M106 S100

G0 Z40 F10000

M190 S60 ; wait for bed temp

M107

;
; MBL
;
M84 E ; turn off E motor
G29 P1 ; invalidate mbl & probe print area
G29 P1 X0 Y0 W50 H20 C ; probe near purge place
G29 P3.2 ; interpolate mbl probes
G29 P3.13 ; extrapolate mbl outside probe area
G29 A ; activate mbl

; prepare for purge
M104 S215
G0 X0 Y-4 Z15 F4800 ; move away and ready for the purge
M109 S215

G92 E0
M569 S0 E ; set spreadcycle mode for extruder

;
; Extrude purge line
;
G92 E0 ; reset extruder position
G1 E2 F2400 ; deretraction after the initial one before nozzle cleaning
G0 E7 X15 Z0.2 F500 ; purge
G0 X25 E4 F500 ; purge
G0 X35 E4 F650 ; purge
G0 X45 E4 F800 ; purge
G0 X48 Z0.05 F8000 ; wipe, move close to the bed
G0 X51 Z0.2 F8000 ; wipe, move quickly away from the bed

G92 E0
M221 S100 ; set flow to 100%
G21 ; set units to millimeters
G90 ; use absolute coordinates
M83 ; use relative distances for extrusion
M900 K0.05 ; Filament gcode



M142 S36 ; set heatbreak target temp
M107
;LAYER_CHANGE
;Z:0.2
;HEIGHT:0.2
;BEFORE_LAYER_CHANGE
G92 E0.0
;0.2


G1 E-.8 F2100
G1 Z.2 F720
;AFTER_LAYER_CHANGE
;0.2
; printing object housing3.stl id:0 copy 0
G1 Z.4
G1 X44.524 Y113.226 F12000
G1 Z.2 F720
G1 E.8 F1500
M204 P600
;TYPE:Support material interface
;WIDTH:0.37
G1 F1200
G1 X44.588 Y113.291 E.00248
G1 X45.334 Y113.291 E.02029
G1 X45.021 Y112.978 E.01204
G1 X45.766 Y112.978 E.02026
G1 X46.079 Y113.291 E.01204
G1 X46.825 Y113.291 E.02029
G1 X46.512 Y112.978 E.01204
G1 X47.257 Y112.978 E.02026
G1 X47.57 Y113.291 E.01204
G1 X48.315 Y113.291 E.02026
G1 X48.002 Y112.978 E.01204
G1 X48.748 Y112.978 E.02029
G1 X49.061 Y113.291 E.01204
G1 X49.806 Y113.291 E.02026
G1 X49.493 Y112.978 E.01204
G1 X50.239 Y112.978 E.02029
G1 X50.552 Y113.291 E.01204
G1 X51.297 Y113.291 E.02026
G1 X50.984 Y112.978 E.01204
G1 X51.729 Y112.978 E.02026
G1 X52.042 Y113.291 E.01204
G1 X52.788 Y113.291 E.02029
G1 X52.475 Y112.978 E.01204
G1 X53.22 Y112.978 E.02026
G1 X53.533 Y113.291 E.01204
G1 X54.279 Y113.291 E.02029
G1 X53.966 Y112.978 E.01204
G1 X54.711 Y112.978 E.02026
G1 X55.024 Y113.291 E.01204
G1 X55.52 Y113.291 E.01349
G1 X55.52 Y113.042 E.00677
G1 X55.456 Y112.978 E.00246
M204 P1000
G1 E-.64 F2100
;WIPE_START
G1 F9600
G1 X55.52 Y113.042 E-.01881
G1 X55.52 Y113.291 E-.05175
G1 X55.09 Y113.291 E-.08944
;WIPE_END
G1 Z.4 F720
G1 X66.205 Y113.291 F12000
G1 Z.2 F720
G1 E.8 F1500
M204 P600
G1 F1200
G1 X66.081 Y113.167 E.00477
G1 X66.081 Y112.978 E.00514
G1 X66.637 Y112.978 E.01512
G1 X66.95 Y113.291 E.01204
G1 X67.696 Y113.291 E.02029
G1 X67.383 Y112.978 E.01204
G1 X68.128 Y112.978 E.02026
G1 X68.441 Y113.291 E.01204
G1 X69.187 Y113.291 E.02029
G1 X68.874 Y112.978 E.01204
G1 X69.619 Y112.978 E.02026
G1 X69.932 Y113.291 E.01204
G1 X70.677 Y113.291 E.02026
G1 X70.364 Y112.978 E.01204
G1 X71.11 Y112.978 E.02029
G1 X71.423 Y113.291 E.01204
G1 X72.168 Y113.291 E.02026
G1 X71.855 Y112.978 E.01204
G1 X72.601 Y112.978 E.02029
G1 X72.914 Y113.291 E.01204
G1 X73.659 Y113.291 E.02026
G1 X73.346 Y112.978 E.01204
G1 X74.091 Y112.978 E.02026
G1 X74.405 Y113.291 E.01206
G1 X75.15 Y113.291 E.02026
G1 X74.837 Y112.978 E.01204
G1 X75.582 Y112.978 E.02026
G1 X75.895 Y113.291 E.01204
G1 X76.641 Y113.291 E.02029
G1 X76.328 Y112.978 E.01204
G1 X77.073 Y112.978 E.02026
G1 X77.386 Y113.291 E.01204
G1 X78.132 Y113.291 E.02029
G1 X77.818 Y112.978 E.01206
G1 X78.564 Y112.978 E.02029
G1 X78.877 Y113.291 E.01204
G1 X79.622 Y113.291 E.02026
G1 X79.309 Y112.978 E.01204
G1 X80.055 Y112.978 E.02029
G1 X80.368 Y113.291 E.01204
G1 X81.113 Y113.291 E.02026
G1 X80.8 Y112.978 E.01204
G1 X81.545 Y112.978 E.02026
G1 X81.859 Y113.291 E.01206
G1 X82.604 Y113.291 E.02026
G1 X82.291 Y112.978 E.01204
G1 X83.036 Y112.978 E.02026
G1 X83.349 Y113.291 E.01204
G1 X84.095 Y113.291 E.02029
G1 X83.782 Y112.978 E.01204
G1 X84.527 Y112.978 E.02026
G1 X84.84 Y113.291 E.01204
G1 X85.586 Y113.291 E.02029
G1 X85.272 Y112.978 E.01206
G1 X86.018 Y112.978 E.02029
G1 X86.331 Y113.291 E.01204
G1 X87.076 Y113.291 E.02026
G1 X86.763 Y112.978 E.01204
G1 X87.509 Y112.978 E.02029
G1 X87.822 Y113.291 E.01204
G1 X88.567 Y113.291 E.02026
G1 X88.254 Y112.978 E.01204
G1 X89 Y112.978 E.02029
G1 X89.313 Y113.291 E.01204
G1 X90.058 Y113.291 E.02026
G1 X89.745 Y112.978 E.01204
G1 X90.49 Y112.978 E.02026
G1 X90.803 Y113.291 E.01204
G1 X91.549 Y113.291 E.02029
G1 X91.236 Y112.978 E.01204
G1 X91.981 Y112.978 E.02026
G1 X92.294 Y113.291 E.01204
G1 X93.04 Y113.291 E.02029
G1 X92.727 Y112.978 E.01204
G1 X93.472 Y112.978 E.02026
G1 X93.785 Y113.291 E.01204
G1 X94.53 Y113.291 E.02026
G1 X94.217 Y112.978 E.01204
G1 X94.963 Y112.978 E.02029
G1 X95.276 Y113.291 E.01204
G1 X96.021 Y113.291 E.02026
G1 X95.708 Y112.978 E.01204
G1 X96.454 Y112.978 E.02029
G1 X96.767 Y113.291 E.01204
G1 X97.512 Y113.291 E.02026
G1 X97.199 Y112.978 E.01204
G1 X97.944 Y112.978 E.02026
G1 X98.257 Y113.291 E.01204
G1 X99.003 Y113.291 E.02029
G1 X98.69 Y112.978 E.01204
G1 X99.435 Y112.978 E.02026
G1 X99.748 Y113.291 E.01204
G1 X100.494 Y113.291 E.02029
G1 X100.181 Y112.978 E.01204
G1 X100.926 Y112.978 E.02026
G1 X101.239 Y113.291 E.01204
G1 X101.984 Y113.291 E.02026
G1 X101.671 Y112.978 E.01204
G1 X102.417 Y112.978 E.02029
G1 X102.73 Y113.291 E.01204
G1 X103.475 Y113.291 E.02026
G1 X103.162 Y112.978 E.01204
G1 X103.908 Y112.978 E.02029
G1 X104.221 Y113.291 E.01204
G1 X104.966 Y113.291 E.02026
G1 X104.653 Y112.978 E.01204
G1 X105.398 Y112.978 E.02026
G1 X105.711 Y113.291 E.01204
G1 X106.457 Y113.291 E.02029
G1 X106.144 Y112.978 E.01204
G1 X106.889 Y112.978 E.02026
G1 X107.202 Y113.291 E.01204
G1 X107.948 Y113.291 E.02029
G1 X107.635 Y112.978 E.01204
G1 X108.38 Y112.978 E.02026
G1 X108.693 Y113.291 E.01204
G1 X109.438 Y113.291 E.02026
G1 X109.125 Y112.978 E.01204
G1 X109.871 Y112.978 E.02029
G1 X110.184 Y113.291 E.01204
G1 X110.929 Y113.291 E.02026
G1 X110.616 Y112.978 E.01204
G1 X111.362 Y112.978 E.02029
G1 X111.675 Y113.291 E.01204
G1 X112.42 Y113.291 E.02026
G1 X112.107 Y112.978 E.01204
G1 X112.852 Y112.978 E.02026
G1 X113.165 Y113.291 E.01204
G1 X113.911 Y113.291 E.02029
G1 X113.598 Y112.978 E.01204
G1 X114.343 Y112.978 E.02026
G1 X114.656 Y113.291 E.01204
G1 X115.402 Y113.291 E.02029
G1 X115.089 Y112.978 E.01204
G1 X115.834 Y112.978 E.02026
G1 X116.147 Y113.291 E.01204
G1 X116.892 Y113.291 E.02026
G1 X116.579 Y112.978 E.01204
G1 X117.325 Y112.978 E.02029
G1 X117.638 Y113.291 E.01204
G1 X118.383 Y113.291 E.02026
G1 X118.07 Y112.978 E.01204
G1 X118.816 Y112.978 E.02029
G1 X119.129 Y113.291 E.01204
G1 X119.874 Y113.291 E.02026
G1 X119.561 Y112.978 E.01204
G1 X120.306 Y112.978 E.02026
G1 X120.619 Y113.291 E.01204
G1 X121.365 Y113.291 E.02029
G1 X121.052 Y112.978 E.01204
G1 X121.797 Y112.978 E.02026
G1 X122.11 Y113.291 E.01204
G1 X122.856 Y113.291 E.02029
G1 X122.543 Y112.978 E.01204
G1 X123.288 Y112.978 E.02026
G1 X123.601 Y113.291 E.01204
G1 X124.346 Y113.291 E.02026
G1 X124.033 Y112.978 E.01204
G1 X124.779 Y112.978 E.02029
G1 X125.092 Y113.291 E.01204
G1 X125.837 Y113.291 E.02026
G1 X125.524 Y112.978 E.01204
G1 X126.27 Y112.978 E.02029
G1 X126.583 Y113.291 E.01204
G1 X127.328 Y113.291 E.02026
G1 X127.015 Y112.978 E.01204
G1 X127.76 Y112.978 E.02026
G1 X128.073 Y113.291 E.01204
G1 X128.819 Y113.291 E.02029
G1 X128.506 Y112.978 E.01204
G1 X129.251 Y112.978 E.02026
G1 X129.564 Y113.291 E.01204
G1 X130.31 Y113.291 E.02029
G1 X129.997 Y112.978 E.01204
G1 X130.742 Y112.978 E.02026
G1 X131.055 Y113.291 E.01204
G1 X131.8 Y113.291 E.02026
G1 X131.487 Y112.978 E.01204
G1 X132.233 Y112.978 E.02029
G1 X132.546 Y113.291 E.01204
G1 X133.291 Y113.291 E.02026
G1 X132.978 Y112.978 E.01204
G1 X133.724 Y112.978 E.02029
G1 X134.037 Y113.291 E.01204
G1 X134.782 Y113.291 E.02026
G1 X134.469 Y112.978 E.01204
G1 X135.214 Y112.978 E.02026
G1 X135.527 Y113.291 E.01204
G1 X136.273 Y113.291 E.02029
G1 X135.96 Y112.978 E.01204
G1 X136.705 Y112.978 E.02026
G1 X137.018 Y113.291 E.01204
G1 X137.764 Y113.291 E.02029
G1 X137.451 Y112.978 E.01204
G1 X138.196 Y112.978 E.02026
G1 X138.509 Y113.291 E.01204
G1 X139.254 Y113.291 E.02026
G1 X138.941 Y112.978 E.01204
G1 X139.687 Y112.978 E.02029
G1 X140 Y113.291 E.01204
G1 X140.745 Y113.291 E.02026
G1 X140.432 Y112.978 E.01204
G1 X141.178 Y112.978 E.02029
G1 X141.491 Y113.291 E.01204
G1 X142.236 Y113.291 E.02026
G1 X141.923 Y112.978 E.01204
G1 X142.668 Y112.978 E.02026
G1 X142.982 Y113.291 E.01206
G1 X143.727 Y113.291 E.02026
G1 X143.414 Y112.978 E.01204
G1 X144.159 Y112.978 E.02026
G1 X144.472 Y113.291 E.01204
G1 X145.218 Y113.291 E.02029
G1 X144.905 Y112.978 E.01204
G1 X145.65 Y112.978 E.02026
G1 X145.963 Y113.291 E.01204
G1 X146.709 Y113.291 E.02029
G1 X146.395 Y112.978 E.01206
G1 X147.141 Y112.978 E.02029
G1 X147.454 Y113.291 E.01204
G1 X148.199 Y113.291 E.02026
G1 X147.886 Y112.978 E.01204
G1 X148.632 Y112.978 E.02029
G1 X148.945 Y113.291 E.01204
G1 X149.69 Y113.291 E.02026
G1 X149.377 Y112.978 E.01204
G1 X150.122 Y112.978 E.02026
G1 X150.436 Y113.291 E.01206
G1 X151.181 Y113.291 E.02026
G1 X150.868 Y112.978 E.01204
G1 X151.613 Y112.978 E.02026
G1 X151.926 Y113.291 E.01204
G1 X152.672 Y113.291 E.02029
G1 X152.359 Y112.978 E.01204
G1 X153.104 Y112.978 E.02026
G1 X153.417 Y113.291 E.01204
G1 X154.163 Y113.291 E.02029
G1 X153.85 Y112.978 E.01204
G1 X154.595 Y112.978 E.02026
G1 X154.908 Y113.291 E.01204
G1 X155.653 Y113.291 E.02026
G1 X155.34 Y112.978 E.01204
G1 X156.086 Y112.978 E.02029
G1 X156.399 Y113.291 E.01204
G1 X157.144 Y113.291 E.02026
G1 X156.831 Y112.978 E.01204
G1 X157.577 Y112.978 E.02029
G1 X157.89 Y113.291 E.01204
G1 X158.635 Y113.291 E.02026
G1 X158.322 Y112.978 E.01204
G1 X159.067 Y112.978 E.02026
G1 X159.38 Y113.291 E.01204
G1 X160.126 Y113.291 E.02029
G1 X159.813 Y112.978 E.01204
G1 X160.558 Y112.978 E.02026
G1 X160.871 Y113.291 E.01204
G1 X161.617 Y113.291 E.02029
G1 X161.304 Y112.978 E.01204
G1 X162.049 Y112.978 E.02026
G1 X162.362 Y113.291 E.01204
G1 X163.107 Y113.291 E.02026
G1 X162.794 Y112.978 E.01204
G1 X163.54 Y112.978 E.02029
G1 X163.853 Y113.291 E.01204
G1 X164.598 Y113.291 E.02026
G1 X164.285 Y112.978 E.01204
G1 X165.031 Y112.978 E.02029
G1 X165.344 Y113.291 E.01204
G1 X166.089 Y113.291 E.02026
G1 X165.776 Y112.978 E.01204
G1 X166.521 Y112.978 E.02026
G1 X166.834 Y113.291 E.01204
G1 X167.58 Y113.291 E.02029
G1 X167.267 Y112.978 E.01204
G1 X168.012 Y112.978 E.02026
G1 X168.325 Y113.291 E.01204
G1 X169.071 Y113.291 E.02029
G1 X168.758 Y112.978 E.01204
G1 X169.503 Y112.978 E.02026
G1 X169.816 Y113.291 E.01204
G1 X170.561 Y113.291 E.02026
G1 X170.248 Y112.978 E.01204
G1 X170.994 Y112.978 E.02029
G1 X171.307 Y113.291 E.01204
G1 X172.052 Y113.291 E.02026
G1 X171.739 Y112.978 E.01204
G1 X172.485 Y112.978 E.02029
G1 X172.798 Y113.291 E.01204
G1 X173.543 Y113.291 E.02026
G1 X173.23 Y112.978 E.01204
G1 X173.577 Y112.978 E.00944
G1 X173.577 Y113.162 E.005
M204 P1000
G1 E-.64 F2100
;WIPE_START
G1 F9600
G1 X173.577 Y112.978 E-.03824
G1 X173.23 Y112.978 E-.07211
G1 X173.399 Y113.147 E-.04965
;WIPE_END
G1 Z.4 F720
G1 X184.247 Y112.978 F12000
G1 Z.2 F720
G1 E.8 F1500
M204 P600
G1 F1200
G1 X184.02 Y112.978 E.00617
G1 X184.02 Y113.291 E.00851
G1 X184.724 Y113.291 E.01915
G1 X184.411 Y112.978 E.01204
G1 X185.156 Y112.978 E.02026
G1 X185.469 Y113.291 E.01204
G1 X186.215 Y113.291 E.02029
G1 X185.902 Y112.978 E.01204
G1 X186.647 Y112.978 E.02026
G1 X186.96 Y113.291 E.01204
G1 X187.706 Y113.291 E.02029
G1 X187.393 Y112.978 E.01204
G1 X188.138 Y112.978 E.02026
G1 X188.451 Y113.291 E.01204
G1 X189.196 Y113.291 E.02026
G1 X188.883 Y112.978 E.01204
G1 X189.629 Y112.978 E.02029
G1 X189.942 Y113.291 E.01204
G1 X190.687 Y113.291 E.02026
G1 X190.374 Y112.978 E.01204
G1 X191.12 Y112.978 E.02029
G1 X191.433 Y113.291 E.01204
G1 X192.178 Y113.291 E.02026
G1 X191.865 Y112.978 E.01204
G1 X192.61 Y112.978 E.02026
G1 X192.923 Y113.291 E.01204
G1 X193.669 Y113.291 E.02029
G1 X193.356 Y112.978 E.01204
G1 X194.101 Y112.978 E.02026
G1 X194.414 Y113.291 E.01204
G1 X195.16 Y113.291 E.02029
G1 X194.847 Y112.978 E.01204
G1 X195.592 Y112.978 E.02026
G1 X195.905 Y113.291 E.01204
G1 X196.65 Y113.291 E.02026
G1 X196.337 Y112.978 E.01204
G1 X197.083 Y112.978 E.02029
G1 X197.396 Y113.291 E.01204
G1 X198.141 Y113.291 E.02026
G1 X197.828 Y112.978 E.01204
G1 X198.574 Y112.978 E.02029
G1 X198.887 Y113.291 E.01204
G1 X199.632 Y113.291 E.02026
G1 X199.319 Y112.978 E.01204
G1 X200.064 Y112.978 E.02026
G1 X200.377 Y113.291 E.01204
G1 X201.123 Y113.291 E.02029
G1 X200.81 Y112.978 E.01204
G1 X201.555 Y112.978 E.02026
G1 X201.868 Y113.291 E.01204
G1 X202.614 Y113.291 E.02029
G1 X202.301 Y112.978 E.01204
G1 X203.046 Y112.978 E.02026
G1 X203.359 Y113.291 E.01204
G1 X204.104 Y113.291 E.02026
G1 X203.791 Y112.978 E.01204
G1 X204.537 Y112.978 E.02029
G1 X204.85 Y113.291 E.01204
G1 X205.476 Y113.291 E.01703
G1 X205.476 Y113.172 E.00324
G1 X205.282 Y112.978 E.00746
M204 P1000
G1 E-.64 F2100
;WIPE_START
G1 F9600
G1 X205.476 Y113.172 E-.05701
G1 X205.476 Y113.291 E-.02473
G1 X205.099 Y113.291 E-.07826
;WIPE_END
G1 Z.4 F720
G1 X205.39 Y118.707 F12000
G1 Z.2 F720
G1 E.8 F1500
M204 P600
;TYPE:Support material
;WIDTH:0.5
G1 F1200
G1 X205.747 Y119.065 E.01922
G1 X210.75 Y119.065 E.19015
G1 X210.75 Y127.845 E.3337
G1 X205.747 Y127.845 E.19015
G1 X205.39 Y128.202 E.01919
G1 X205.39 Y130.845 E.10045
G1 X203.25 Y130.845 E.08133
G1 X203.25 Y116.065 E.56173
G1 X205.39 Y116.065 E.08133
G1 X205.39 Y118.639 E.09783
M204 P1000
G1 X210.131 Y127.639 F12000
M204 P600
G1 F1200
G1 X210.131 Y119.476 E.31025
G1 X209.56 Y119.476 E.0217
G1 X209.56 Y127.433 E.30242
G1 X208.988 Y127.433 E.02174
G1 X208.988 Y119.476 E.30242
M73 P0 R162
G1 X208.417 Y119.476 E.0217
G1 X208.417 Y127.433 E.30242
G1 X207.846 Y127.433 E.0217
G1 X207.846 Y119.476 E.30242
G1 X207.274 Y119.476 E.02174
G1 X207.274 Y127.433 E.30242
G1 X206.703 Y127.433 E.0217
G1 X206.703 Y119.476 E.30242
G1 X206.132 Y119.476 E.0217
G1 X206.132 Y127.433 E.30242
G1 X205.577 Y127.433 E.02109
G1 X205.56 Y127.45 E.00091
G1 X205.56 Y119.459 E.30371
G1 X204.989 Y118.888 E.03069
G1 X204.989 Y128.021 E.34711
G1 X204.979 Y128.032 E.00057
G1 X204.979 Y130.433 E.09125
G1 X204.418 Y130.433 E.02132
G1 X204.418 Y116.476 E.53045
G1 X203.846 Y116.476 E.02174
G1 X203.846 Y130.639 E.53828
M204 P1000
G1 E-.64 F2100
;WIPE_START
G1 F9600
G1 X203.846 Y129.869 E-.16
;WIPE_END
G1 Z.4 F720
G1 X205.476 Y133.88 F12000
G1 Z.2 F720
G1 E.8 F1500
M204 P600
;TYPE:Support material interface
;WIDTH:0.37
G1 F1200
G1 X205.476 Y133.618 E.00713
G1 X205.051 Y133.618 E.01156
G1 X205.364 Y133.931 E.01204
G1 X204.619 Y133.931 E.02026
G1 X204.305 Y133.618 E.01206
G1 X203.56 Y133.618 E.02026
G1 X203.873 Y133.931 E.01204
G1 X203.128 Y133.931 E.02026
G1 X202.815 Y133.618 E.01204
G1 X202.069 Y133.618 E.02029
G1 X202.382 Y133.931 E.01204
G1 X201.637 Y133.931 E.02026
G1 X201.324 Y133.618 E.01204
G1 X200.578 Y133.618 E.02029
G1 X200.892 Y133.931 E.01206
G1 X200.146 Y133.931 E.02029
